Papirus/64x64/apps/com.github.muriloventuroso.easyssh.svg

<?xml version="1.0" encoding="UTF-8" standalone="no"?>
<svg
   id="_图层_1"
   version="1.1"
   viewBox="0 0 64 64" width="64" height="64"
   sodipodi:docname="com.github.muriloventuroso.easyssh.svg"
   xml:space="preserve"
   inkscape:version="1.4 (e7c3feb100, 2024-10-09)"
   xmlns:inkscape="http://www.inkscape.org/namespaces/inkscape"
   xmlns:sodipodi="http://sodipodi.sourceforge.net/DTD/sodipodi-0.dtd"
   xmlns="http://www.w3.org/2000/svg"
   xmlns:svg="http://www.w3.org/2000/svg"><sodipodi:namedview
     id="namedview26"
     pagecolor="#505050"
     bordercolor="#eeeeee"
     borderopacity="1"
     inkscape:showpageshadow="0"
     inkscape:pageopacity="0"
     inkscape:pagecheckerboard="0"
     inkscape:deskcolor="#505050"
     inkscape:zoom="10.6875"
     inkscape:cx="32"
     inkscape:cy="41.637427"
     inkscape:window-width="1920"
     inkscape:window-height="939"
     inkscape:window-x="0"
     inkscape:window-y="34"
     inkscape:window-maximized="1"
     inkscape:current-layer="_图层_1" /><!-- Generator: Adobe Illustrator 29.0.1, SVG Export Plug-In . SVG Version: 2.1.0 Build 192)  --><defs
     id="defs6"><style
       id="style1">
      .st0 {
        fill-opacity: .5;
      }

      .st0, .st1, .st2, .st3, .st4, .st5, .st6, .st7 {
        fill: #fff;
      }

      .st8 {
        fill: #133c9a;
      }

      .st2, .st9 {
        display: none;
      }

      .st3 {
        fill-opacity: .2;
      }

      .st4 {
        fill-opacity: .9;
      }

      .st10 {
        fill: #3370ff;
      }

      .st11 {
        fill: url(#_未命名的渐变_3);
      }

      .st12 {
        fill: url(#_未命名的渐变);
      }

      .st5 {
        fill-opacity: .3;
      }

      .st6 {
        fill-opacity: 0;
      }

      .st7 {
        fill-opacity: .7;
      }

      .st13 {
        fill: #00d6b9;
      }

      .st14 {
        fill: url(#_未命名的渐变_2);
      }
    </style><radialGradient
       id="_未命名的渐变"
       data-name="未命名的渐变"
       cx="123.9"
       cy="-40.2"
       fx="123.9"
       fy="-40.2"
       r="59.4"
       gradientTransform="translate(-26.8 25.5) scale(.6 -.7)"
       gradientUnits="userSpaceOnUse"><stop
         offset="0"
         stop-color="#db202e"
         id="stop1" /><stop
         offset="1"
         stop-color="#e01b24"
         id="stop2" /></radialGradient><radialGradient
       id="_未命名的渐变_2"
       data-name="未命名的渐变 2"
       cx="67.6"
       cy="26.8"
       fx="67.6"
       fy="26.8"
       r="105.2"
       gradientTransform="translate(-26.6 25.3) scale(.6 -.7)"
       gradientUnits="userSpaceOnUse"><stop
         offset="0"
         stop-color="#ffb648"
         id="stop3" /><stop
         offset="1"
         stop-color="#ff7800"
         stop-opacity="0"
         id="stop4" /></radialGradient><radialGradient
       id="_未命名的渐变_3"
       data-name="未命名的渐变 3"
       cx="61.7"
       cy="18.6"
       fx="61.7"
       fy="18.6"
       r="68"
       gradientTransform="matrix(0.6,0,0,-0.7,-26.8,25.8)"
       gradientUnits="userSpaceOnUse"><stop
         offset="0"
         stop-color="#c64600"
         id="stop5" /><stop
         offset="1"
         stop-color="#a51d2d"
         id="stop6" /></radialGradient></defs><path
     class="st1"
     d="M47.5,64.1H13.8c-7.6,0-13.8-6.3-13.8-13.8V13.7C0,6.2,6.2,0,13.7,0h36.6c7.5,0,13.7,6.2,13.7,13.7v36.6c0,7.5-6.2,13.7-13.7,13.7h-2.9.1Z"
     id="path6"
     style="fill:#4f4f4f;fill-opacity:1" /><g
     id="g48"
     transform="matrix(1.1403509,0,0,1.1411716,-4.3976608,-4.3980199)"><path
       style="opacity:0.2;fill:none;stroke:#000000;stroke-width:3"
       d="m 37.6,25.899761 7,-4.2 7,4.2"
       id="path3" /><path
       style="fill:none;stroke:#ffffff;stroke-width:3"
       d="m 37.6,24.899761 7,-4.2 7,4.2"
       id="path4" /><rect
       style="opacity:0.2"
       width="12"
       height="3"
       x="26"
       y="36"
       id="rect4" /><rect
       style="fill:#ffffff"
       width="12"
       height="3"
       x="26"
       y="35"
       id="rect5" /><path
       style="opacity:0.2"
       d="m 19,14 v 3 h -1.5 c -2.493,0 -4.5,2.007 -4.5,4.5 0,2.493 2.007,4.5 4.5,4.5 H 19 v 3 h -1.5 -4.224609 c 0.617611,1.746527 2.261346,3 4.224609,3 H 19 v 3 h 3 v -3 h 1.5 C 25.993,32 28,29.993 28,27.5 28,25.007 25.993,23 23.5,23 H 22 v -3 h 1.5 0.5 3.724609 C 27.106998,18.253473 25.463263,17 23.5,17 H 22 v -3 z m -1.5,6 H 19 v 3 H 17.5 C 16.617108,23 16,22.382892 16,21.5 16,20.617108 16.617108,20 17.5,20 Z m 4.5,6 h 1.5 c 0.882892,0 1.5,0.617108 1.5,1.5 0,0.882892 -0.617108,1.5 -1.5,1.5 H 22 Z"
       id="path5" /><path
       style="fill:#ffffff"
       d="m 19,13 v 3 h -1.5 c -2.493,0 -4.5,2.007 -4.5,4.5 0,2.493 2.007,4.5 4.5,4.5 H 19 v 3 h -1.5 -4.224609 c 0.617611,1.746527 2.261346,3 4.224609,3 H 19 v 3 h 3 v -3 h 1.5 C 25.993,31 28,28.993 28,26.5 28,24.007 25.993,22 23.5,22 H 22 v -3 h 1.5 0.5 3.724609 C 27.106998,17.253473 25.463263,16 23.5,16 H 22 v -3 z m -1.5,6 H 19 v 3 H 17.5 C 16.617108,22 16,21.382892 16,20.5 16,19.617108 16.617108,19 17.5,19 Z m 4.5,6 h 1.5 c 0.882892,0 1.5,0.617108 1.5,1.5 0,0.882892 -0.617108,1.5 -1.5,1.5 H 22 Z"
       id="path6-2" /></g></svg>

<svg xmlns="http://www.w3.org/2000/svg" width="64" height="64" version="1.1">
 <path style="opacity:0.2" d="M 32,5 A 28,28 0 0 0 4,33 28,28 0 0 0 7.264845,46.08125 c 15.214074,2.386244 35.026866,0.01876 52.45625,-9.357032 A 28,28 0 0 0 60,33 28,28 0 0 0 32,5 Z M 57.763282,43.964845 C 42.360087,51.148903 25.833118,53.504887 11.705468,52.271874 A 28,28 0 0 0 32,61 28,28 0 0 0 57.763282,43.964845 Z"/>
 <path style="fill:#4f4f4f" d="M 32,4 A 28,28 0 0 0 4,32 28,28 0 0 0 7.264845,45.08125 c 15.214074,2.386244 35.026866,0.01876 52.45625,-9.357032 A 28,28 0 0 0 60,32 28,28 0 0 0 32,4 Z M 57.763282,42.964845 C 42.360087,50.148903 25.833118,52.504887 11.705468,51.271874 A 28,28 0 0 0 32,60 28,28 0 0 0 57.763282,42.964845 Z"/>
 <path style="opacity:0.2;fill:none;stroke:#000000;stroke-width:3" d="m 37.6,25.899761 7,-4.2 7,4.2"/>
 <path style="fill:none;stroke:#ffffff;stroke-width:3" d="m 37.6,24.899761 7,-4.2 7,4.2"/>
 <rect style="opacity:0.2" width="12" height="3" x="26" y="36"/>
 <rect style="fill:#ffffff" width="12" height="3" x="26" y="35"/>
 <path style="opacity:0.2" d="m 19,14 v 3 h -1.5 c -2.493,0 -4.5,2.007 -4.5,4.5 0,2.493 2.007,4.5 4.5,4.5 H 19 v 3 h -1.5 -4.224609 c 0.617611,1.746527 2.261346,3 4.224609,3 H 19 v 3 h 3 v -3 h 1.5 C 25.993,32 28,29.993 28,27.5 28,25.007 25.993,23 23.5,23 H 22 v -3 h 1.5 0.5 3.724609 C 27.106998,18.253473 25.463263,17 23.5,17 H 22 v -3 z m -1.5,6 H 19 v 3 H 17.5 C 16.617108,23 16,22.382892 16,21.5 16,20.617108 16.617108,20 17.5,20 Z m 4.5,6 h 1.5 c 0.882892,0 1.5,0.617108 1.5,1.5 0,0.882892 -0.617108,1.5 -1.5,1.5 H 22 Z"/>
 <path style="fill:#ffffff" d="M 19 13 L 19 16 L 17.5 16 C 15.007 16 13 18.007 13 20.5 C 13 22.993 15.007 25 17.5 25 L 19 25 L 19 28 L 17.5 28 L 13.275391 28 C 13.893002 29.746527 15.536737 31 17.5 31 L 19 31 L 19 34 L 22 34 L 22 31 L 23.5 31 C 25.993 31 28 28.993 28 26.5 C 28 24.007 25.993 22 23.5 22 L 22 22 L 22 19 L 23.5 19 L 24 19 L 27.724609 19 C 27.106998 17.253473 25.463263 16 23.5 16 L 22 16 L 22 13 L 19 13 z M 17.5 19 L 19 19 L 19 22 L 17.5 22 C 16.617108 22 16 21.382892 16 20.5 C 16 19.617108 16.617108 19 17.5 19 z M 22 25 L 23.5 25 C 24.382892 25 25 25.617108 25 26.5 C 25 27.382892 24.382892 28 23.5 28 L 22 28 L 22 25 z"/>
 <path style="opacity:0.1;fill:#ffffff" d="M 32 4 A 28 28 0 0 0 4 32 A 28 28 0 0 0 4.0214844 32.40625 A 28 28 0 0 1 32 5 A 28 28 0 0 1 59.982422 32.667969 A 28 28 0 0 0 60 32 A 28 28 0 0 0 32 4 z M 57.763672 42.964844 C 42.360477 50.148902 25.832728 52.504497 11.705078 51.271484 A 28 28 0 0 0 12.837891 52.351562 C 26.531881 53.352964 42.346987 51.011595 57.173828 44.226562 A 28 28 0 0 0 57.763672 42.964844 z"/>
</svg>
